X:1
T:It Truly Is Marvelous
T:It Truly Is Marvelous
T:William Edie Marks
T:E. D. Elliott, 1904
T:Public Domain Courtesy of the Cyber Hymnal™
C:William Edie Marks
Z:Public Domain
Z:Courtesy of the Cyber Hymnal™
%%score ( 1 2 ) ( 3 4 )
L:1/8
Q:1/4=90
M:6/8
K:C
V:1 treble 
V:2 treble 
V:3 bass 
V:4 bass 
V:1
 [EG] | [Ec][Ec][Ec] [EB][EA][EG] | [EA][EB][EA] [EG][CE]C | [EG]3 [EG]3 | [FG]3- [FG]2 [FG] | %5
w: 1.~It|tru- ly is mar- ve- lous|what the Lord do- eth for|Me each|day! * Sur-|
w: 2.~My|soul is as- ton- ished that|He is so gra- cious- ly|Kind to|me, * That|
w: 3.~I|can- not tell why He should|send to me dai- ly such|Showers of|grace, * O|
w: 4.~Be-|yond all des- crip- tion, be-|yond all com- pare, is this|Joy of|mine; * I|
 [FB][FB][FB] [FB][FA][FG] | [FA][FB][FA] [DF][CE][B,D] | [CG]3 [FG]3 | [EG]3- [EG]2 || %9
w: pris- ing- ly won- der- ful|how He is bless- ing me|All the|way! *|
w: one so un- wor- thy of|in- fi- nite no- tice should|Fa- vored|be. *|
w: why so un- wor- thy a|sin- ner may shel- ter in|His em-|brace. *|
w: sing in my rap- ture, “All|glo- ry to God for such|Peace di-|vine.” *|
"^Refrain" [EG] x6 | [Ge][Ge][Ge] [Ge][Gd][Gc] | [Ac][Ac][Ac] [Ac][GB][FA] | [EG]3 [^Fe]3 | %13
w: ||||
w: ||||
w: ||||
w: ||||
 [Gd]3- [Gd]2 [Gd] | [Ge][Ge][Ge] [Ge][Gd][Gc] | [Ac][Ac][Ac] [Ac][GB][FA] | [EG]3 [Fd]3 | %17
w: ||||
w: ||||
w: ||||
w: ||||
 [Ec]3- [Ec]2 |] %18
w: |
w: |
w: |
w: |
V:2
 x | x6 | x5 C | x6 | x6 | x6 | x6 | x6 | x5 || x7 | x6 | x6 | x6 | x6 | x6 | x6 | x6 | x5 |] %18
V:3
 [C,C] | [C,G,][C,G,][C,G,] [C,G,][C,A,][C,C] | [C,C][C,C][C,C] [C,C][C,G,][C,E,] | %3
w: |||
 [C,C]3 [^C,^A,]3 | [D,B,]3- [D,B,]2 [G,B,] | [G,D][G,D][G,D] [G,D][G,C][G,B,] | %6
w: |||
 [G,B,][G,B,][G,B,] [G,B,]G,[F,G,] | [E,G,]3 [D,B,]3 | [C,C]3- [C,C]2 || %9
w: * * * * O *|||
 [C,C][C,C][C,C] [C,C][C,C][D,B,][E,C] | [F,C][F,C][F,C] [F,C][F,C][F,C] | [C,C]3 [D,C]3 | %12
w: bless- èd Re- deem- er, O mer-|ci- ful Sav- ior, Thee I|a- dore;|
 [G,B,]3- [G,B,]2 [G,B,] | [C,C][C,C][C,C] [C,C][D,B,][E,C] | [F,C][F,C][F,C] [F,C][F,C][F,C] | %15
w: I’ll * serve|Thee till death, and in Hea-|ven will praise Thee For- ev-|
 [G,C]3 [G,,B,]3 | [C,G,]3- [C,G,]2 x | x5 |] %18
w: er- more.|||
V:4
 x | x6 | x6 | x6 | x6 | x6 | x4 G, x | x6 | x5 || x7 | x6 | x6 | x6 | x6 | x6 | x6 | x6 | x5 |] %18

